src/activities/babyshapes/resource/food/banana.svg

<?xml version="1.0" encoding="UTF-8" standalone="no"?>
<svg
   xmlns:dc="http://purl.org/dc/elements/1.1/"
   xmlns:cc="http://creativecommons.org/ns#"
   xmlns:rdf="http://www.w3.org/1999/02/22-rdf-syntax-ns#"
   xmlns:svg="http://www.w3.org/2000/svg"
   xmlns="http://www.w3.org/2000/svg"
   height="100"
   width="100"
   version="1.1"
   id="svg2">
  <metadata
     id="metadata8">
    <rdf:RDF>
      <cc:Work
         rdf:about="">
        <dc:format>image/svg+xml</dc:format>
        <dc:type
           rdf:resource="http://purl.org/dc/dcmitype/StillImage" />
        <dc:title></dc:title>
        <dc:date>2015</dc:date>
        <dc:creator>
          <cc:Agent>
            <dc:title>Timothée Giet</dc:title>
          </cc:Agent>
        </dc:creator>
        <cc:license
           rdf:resource="http://creativecommons.org/licenses/by-sa/4.0/" />
      </cc:Work>
      <cc:License
         rdf:about="http://creativecommons.org/licenses/by-sa/4.0/">
        <cc:permits
           rdf:resource="http://creativecommons.org/ns#Reproduction" />
        <cc:permits
           rdf:resource="http://creativecommons.org/ns#Distribution" />
        <cc:requires
           rdf:resource="http://creativecommons.org/ns#Notice" />
        <cc:requires
           rdf:resource="http://creativecommons.org/ns#Attribution" />
        <cc:permits
           rdf:resource="http://creativecommons.org/ns#DerivativeWorks" />
        <cc:requires
           rdf:resource="http://creativecommons.org/ns#ShareAlike" />
      </cc:License>
    </rdf:RDF>
  </metadata>
  <defs
     id="defs6" />
  <path
     style="fill:#a58b17;fill-opacity:1;fill-rule:evenodd;stroke:none;stroke-width:2.44237661;stroke-linejoin:round"
     id="path847-3"
     d="m 82.350834,18.196223 c 3.408294,-3.533769 6.629225,-7.376789 8.021015,-5.702572 2.226864,1.339373 0.02984,3.003351 0.308199,5.347254 0.278358,2.343903 -1.648622,13.414206 0.578241,14.083892 2.226864,0.669687 4.081834,3.14493 5.010444,6.362023 C 102.34097,59.323559 85.117593,78.389027 62.971439,85.860159 40.825285,93.331292 4.1322439,78.13317 3.0188121,76.12411 2.4620961,73.780207 1.6270222,68.087871 4.9673178,66.078812 33.638189,57.038044 68.576273,74.784737 83.607603,34.268701 86.112825,27.236992 82.350834,18.196223 82.350834,18.196223 Z" />
  <path
     style="fill:#f4d028;fill-opacity:1;fill-rule:evenodd;stroke:none;stroke-width:2.44237661;stroke-linejoin:round"
     id="path847"
     d="m 84.296209,18.196223 c 3.408294,-3.533769 4.31357,-5.451643 5.062867,-3.407472 0.481371,1.313235 -0.669609,3.972358 -0.391253,6.316261 0.278358,2.343902 0.04643,12.155487 2.290466,12.76516 1.177687,0.319961 2.136459,1.199555 3.065069,4.416648 C 100.39559,59.323559 85.282456,74.135581 63.136302,81.606713 40.990147,89.077846 6.4073432,77.143997 5.2939113,75.134936 4.7371953,72.791034 3.5723968,69.868383 6.9126925,67.859324 35.583564,58.818556 70.521648,74.784737 85.552978,34.268701 88.058199,27.236992 84.296209,18.196223 84.296209,18.196223 Z" />
</svg>

<svg xmlns:dc="http://purl.org/dc/elements/1.1/" xmlns:cc="http://creativecommons.org/ns#" xmlns:rdf="http://www.w3.org/1999/02/22-rdf-syntax-ns#" xmlns="http://www.w3.org/2000/svg" height="100" width="100"><metadata><rdf:RDF><cc:Work><dc:format>image/svg+xml</dc:format><dc:type rdf:resource="http://purl.org/dc/dcmitype/StillImage"/><dc:title/><dc:date>2015</dc:date><dc:creator><cc:Agent><dc:title>Timothée Giet</dc:title></cc:Agent></dc:creator><cc:license rdf:resource="http://creativecommons.org/licenses/by-sa/4.0/"/></cc:Work><cc:License rdf:about="http://creativecommons.org/licenses/by-sa/4.0/"><cc:permits rdf:resource="http://creativecommons.org/ns#Reproduction"/><cc:permits rdf:resource="http://creativecommons.org/ns#Distribution"/><cc:requires rdf:resource="http://creativecommons.org/ns#Notice"/><cc:requires rdf:resource="http://creativecommons.org/ns#Attribution"/><cc:permits rdf:resource="http://creativecommons.org/ns#DerivativeWorks"/><cc:requires rdf:resource="http://creativecommons.org/ns#ShareAlike"/></cc:License></rdf:RDF></metadata><path style="fill:#a58b17;fill-opacity:1;fill-rule:evenodd;stroke:none;stroke-width:2.44237661;stroke-linejoin:round" d="M82.35 18.196c3.41-3.534 6.63-7.377 8.022-5.702 2.227 1.339.03 3.003.308 5.347.278 2.344-1.649 13.414.578 14.084 2.227.67 4.082 3.145 5.01 6.362 6.073 21.037-11.15 40.102-33.297 47.573-22.146 7.471-58.839-7.727-59.952-9.736-.557-2.344-1.392-8.036 1.948-10.045 28.671-9.041 63.61 8.706 78.64-31.81 2.506-7.032-1.256-16.073-1.256-16.073z"/><path style="fill:#f4d028;fill-opacity:1;fill-rule:evenodd;stroke:none;stroke-width:2.44237661;stroke-linejoin:round" d="M84.296 18.196c3.409-3.534 4.314-5.451 5.063-3.407.481 1.313-.67 3.972-.391 6.316.278 2.344.046 12.155 2.29 12.765 1.178.32 2.137 1.2 3.065 4.417 6.073 21.037-9.04 35.849-31.187 43.32-22.146 7.47-56.729-4.463-57.842-6.472-.557-2.344-1.722-5.267 1.619-7.276 28.67-9.04 63.609 6.926 78.64-33.59 2.505-7.032-1.257-16.073-1.257-16.073z"/></svg>
